X:92
T:Fairy Reel
M:4/4
L:1/8
S:G (x3)
R:Reel
O:Kevin Burke
K:G
"G"B2 BA GBdB | "D"cBAG FGAc | "G"BG (3GGG "C"dcAg | "D"(3fed af gfed |!
"G"dBBA GBdB | "D"cBAG FGAc | "G"BG(3GGG "C"cBAG |1 "D"FGAF "G"G3A :|2 "
D"FGAF "G"G3B |!
|:"G"d2 dg "C"e2ed | "A"^cA(3AAA "D"d2d=c | "G"BG(3GGG "C"dcAg | "D"(3fe
d af gfed |!
"G"dBdg "C"e2ed | "A"^cA(3AAA "D"d2d=c | "G"BGBd "C"cBAG |1 "D"FGAF "G"G
3B :|2 "D"FGAF "G"G2A2 ||!
